flaticon/productivity-and-development/cloud-computing-2.svg

<svg xmlns="http://www.w3.org/2000/svg" width="32" height="32" viewBox="0 0 24 24">
    <path d="M 20.898438 14.417969 C 22.601562 14.417969 23.992188 13.152344 24 11.566406 C 24 8.578125 21.703125 6.027344 18.59375 5.480469 C 18.210938 2.375 15.398438 0 12 0 C 9.78125 0 7.753906 1.007812 6.511719 2.714844 C 6.503906 2.714844 6.496094 2.714844 6.488281 2.714844 C 4.320312 2.714844 2.554688 4.367188 2.554688 6.398438 C 2.554688 6.492188 2.558594 6.582031 2.566406 6.679688 C 0.953125 7.851562 0 9.65625 0 11.59375 C 0.0078125 13.152344 1.398438 14.417969 3.101562 14.417969 L 6.664062 14.417969 L 5.378906 15.492188 C 4.953125 15.210938 4.441406 15.042969 3.894531 15.042969 C 2.414062 15.042969 1.210938 16.25 1.210938 17.726562 C 1.210938 19.207031 2.414062 20.410156 3.894531 20.410156 C 4.851562 20.410156 5.695312 19.90625 6.167969 19.148438 L 17.453125 21.730469 C 17.652344 23.015625 18.765625 24 20.105469 24 C 21.585938 24 22.789062 22.796875 22.789062 21.316406 C 22.789062 19.835938 21.585938 18.632812 20.105469 18.632812 C 18.839844 18.632812 17.777344 19.511719 17.496094 20.691406 L 6.539062 18.183594 C 6.5625 18.035156 6.578125 17.882812 6.578125 17.726562 C 6.578125 17.167969 6.40625 16.644531 6.109375 16.210938 L 8.257812 14.417969 Z M 20.105469 19.65625 C 21.019531 19.65625 21.765625 20.402344 21.765625 21.316406 C 21.765625 22.234375 21.019531 22.980469 20.105469 22.980469 C 19.1875 22.980469 18.441406 22.234375 18.441406 21.316406 C 18.441406 20.402344 19.1875 19.65625 20.105469 19.65625 Z M 3.894531 19.390625 C 2.980469 19.390625 2.234375 18.644531 2.234375 17.726562 C 2.234375 16.8125 2.980469 16.066406 3.894531 16.066406 C 4.8125 16.066406 5.558594 16.8125 5.558594 17.726562 C 5.558594 18.644531 4.8125 19.390625 3.894531 19.390625 Z M 3.101562 13.394531 C 1.957031 13.394531 1.027344 12.585938 1.019531 11.566406 C 1.019531 9.898438 1.90625 8.320312 3.394531 7.347656 C 3.566406 7.238281 3.652344 7.035156 3.617188 6.832031 C 3.589844 6.671875 3.574219 6.53125 3.574219 6.398438 C 3.574219 4.929688 4.882812 3.734375 6.488281 3.734375 C 6.570312 3.734375 6.652344 3.742188 6.730469 3.746094 C 6.917969 3.761719 7.09375 3.671875 7.195312 3.519531 C 8.226562 1.953125 10.023438 1.019531 12 1.019531 C 15.003906 1.019531 17.46875 3.1875 17.609375 5.953125 C 17.621094 6.203125 17.8125 6.40625 18.058594 6.4375 C 20.863281 6.761719 22.980469 8.964844 22.980469 11.589844 C 22.972656 12.585938 22.042969 13.394531 20.898438 13.394531 L 9.480469 13.394531 L 11.054688 12.078125 C 11.492188 12.378906 12.015625 12.554688 12.585938 12.554688 C 14.0625 12.554688 15.269531 11.351562 15.269531 9.875 C 15.269531 8.394531 14.0625 7.191406 12.585938 7.191406 C 11.105469 7.191406 9.902344 8.394531 9.902344 9.875 C 9.902344 10.414062 10.0625 10.921875 10.34375 11.34375 L 7.886719 13.394531 Z M 10.921875 9.875 C 10.921875 8.957031 11.667969 8.210938 12.585938 8.210938 C 13.5 8.210938 14.246094 8.957031 14.246094 9.875 C 14.246094 10.789062 13.5 11.535156 12.585938 11.535156 C 11.667969 11.535156 10.921875 10.789062 10.921875 9.875 Z M 10.921875 9.875"/>
</svg>

<svg xmlns="http://www.w3.org/2000/svg" width="32" height="32" viewBox="0 0 24 24">
    <path d="M20.898 14.418c1.704 0 3.094-1.266 3.102-2.852 0-2.988-2.297-5.539-5.406-6.086C18.21 2.375 15.398 0 12 0 9.781 0 7.754 1.008 6.512 2.715h-.024c-2.168 0-3.933 1.652-3.933 3.683 0 .094.004.184.011.282C.953 7.852 0 9.656 0 11.594c.008 1.558 1.398 2.824 3.102 2.824h3.562L5.38 15.492a2.691 2.691 0 0 0-1.484-.449 2.688 2.688 0 0 0-2.684 2.684 2.686 2.686 0 0 0 2.684 2.683c.957 0 1.8-.504 2.273-1.262l11.285 2.582A2.686 2.686 0 0 0 20.105 24a2.686 2.686 0 0 0 2.684-2.684 2.686 2.686 0 0 0-2.684-2.683 2.685 2.685 0 0 0-2.609 2.058L6.54 18.184a2.677 2.677 0 0 0-.43-1.973l2.149-1.793zm-.793 5.238c.915 0 1.66.746 1.66 1.66 0 .918-.745 1.664-1.66 1.664a1.665 1.665 0 0 1-1.664-1.664c0-.914.747-1.66 1.664-1.66zm-16.21-.265c-.915 0-1.66-.746-1.66-1.664 0-.915.745-1.66 1.66-1.66.917 0 1.664.745 1.664 1.66 0 .918-.747 1.664-1.664 1.664zm-.793-5.996c-1.145 0-2.075-.81-2.082-1.829 0-1.668.886-3.246 2.375-4.218a.505.505 0 0 0 .222-.516 2.58 2.58 0 0 1-.043-.434c0-1.468 1.309-2.664 2.914-2.664.082 0 .164.008.242.012a.508.508 0 0 0 .465-.226c1.032-1.567 2.828-2.5 4.805-2.5 3.004 0 5.469 2.167 5.61 4.933.011.25.203.453.449.484 2.804.325 4.921 2.528 4.921 5.153-.007.996-.937 1.805-2.082 1.805H9.48l1.575-1.317a2.687 2.687 0 0 0 4.215-2.203 2.688 2.688 0 0 0-2.684-2.684 2.686 2.686 0 0 0-2.684 2.684c0 .54.16 1.047.442 1.469l-2.457 2.05zm7.82-3.52c0-.918.746-1.664 1.664-1.664.914 0 1.66.746 1.66 1.664 0 .914-.746 1.66-1.66 1.66a1.665 1.665 0 0 1-1.664-1.66zm0 0"/>
</svg>
